X:1
T:Jægernes Sang paa Fjeldet.
T:Jægernes Sang paa Fjeldet.
T:Halfdan Kjerulf
T:J.S Welhaven
C:Halfdan Kjerulf
Z:J.S Welhaven
%%score [ 1 2 3 4 ]
L:1/8
Q:1/4=80
M:2/4
K:A
V:1 treble-8 nm="T1"
V:2 treble-8 nm="T2"
V:3 bass nm="B1"
V:4 bass nm="B2"
V:1
"^Allegro marcato con fuoco"!mf! c | (c/d/) c (c/d/) c | (cf) e3/2 d/ | c B A (G/A/) | %4
w: Det|vif- * ter koldt * og|skum- * rer, og|Aft- \-nens gyld- ne _|
w: Snart|syn- * ker alt * i|Taa- * ge, og|Mul- met hin- drer *|
 B (c/d/) c !>!c | (c/d/) c (c/d/) c | (cf) e3/2 d/ | c B A (G/F/) | c c!<(! !fermata!F c!<)! | %9
w: Blink for- * gaa; alt|Gra- * ne- kol- * len|slum- * rer i|luk- ket Telt af _|Taa- ger graa. Men|
w: hvert et * Trin; i|Bjer- * gets Drøm- * me-|kro- * ge da|kog- les let en _|Van- drer ind. For|
 e2 e2 | (e3 f) | B3/2 c/ d e | f g e !>!f | e (f/a/) e !>!d | c (d/e/) c !>!d | c3!p! d | %16
w: høit paa|Vang _|hol- de Tørn mod|Nat og Veir, og|vaa- ge * trygt med|Blus og * Sang, og|slaa, og|
w: sid- ste|Gang _|vil- de Hei, du|dunk- le Fjeld, vi|si- * ge jer med|Blus og * Sang, Far-|vel, Far-|
 c3!f! [cg] | [cf]3!p! [cg] | [cf]3 z |] %19
w: slaa vor|Leir, vor|Leir.|
w: vel, Far-|vel, Far|vel|
V:2
 A | (A/B/) A (A/B/) A | (Ac) c3/2 B/ | A G F (^E/F/) | G (A/B/) A !>!G | (A/B/) A (A/B/) A | %6
w: Det|vif- * ter koldt * og|skum- * rer, og|Aft- nens gyld- ne _|Blink for- * gaa; alt|Gra- * ne- kol- * len|
w: Snart|syn- * ker alt * i|Taa- * ge, og|Mul- met hin- drer _|hvert et * Trin; i|Bjer- * gets Drøm- * me-|
 A2 A3/2 B/ | A G F (G/F/) | c G!<(! !fermata!A c!<)! | e2 e2 | (e3 d) | G3/2 A/ B c | d B c !>!d | %13
w: slum- rer i|luk- ket Telt af\_ *|Taa- ger graa. Men|høit paa|Vang _|hol- de Tørn mod|Nat og Veir, og|
w: kro- ge da|kog- les let en\_ *|Van- drer ind. For|sid- ste|Gang _|vil- de Hei, du|dunk- le Fjeld, vi|
 c d c !>!B | A B A !>!d | c3!p! d | c3!f! B | A3!p! B | A3 z |] %19
w: vaa- ge trygt med|Blus og Sang, og|slaa, og|slaa vor|Leir vor|Leir.|
w: si- ge jer med|Blus og Sang, Far-|vel, Far-|vel, Far-|vel, Far-|vel.|
V:3
 F, | (F,/^E,/) F, (F,/E,/) F, | F,2 F,3/2 F,/ | ^E, E, F, (G,/F,/) | F, F, F, !>!C, | %5
w: Det|vif- * ter koldt * og|skum- rer, og|Aft- nens gyld- ne _|Blink for- gaa; alt|
w: Snart|syn- * ker alt _ i|Taa- ge, og|Mul- met hind- drer _|hvert et Trin; i|
 (F,/^E,/) F, (=F,/=E,/) F, | (E,D,) C,3/2 D,/ | E, ^E, F, (G,/A,/) | %8
w: Gra- * ne- kol- * len|slum- * rer i|luk- ket Telt af _|
w: Bjer- * gets Drøm- * me-|kro- * ge da|kog- les let en _|
 C, ^E,!<(! !fermata!F, C!<)! | C3/2 B,/ A, B, | C3 B, | B,3/2 E,/ E, E, | E, E, A, !>!A, | %13
w: Taa- ger graa. Men|høit på sæ- ter-|vang vi|hol- de Tørn mod|Nat og Veir, og|
w: Van- drer ind. I|Høst for si- ste|Gang du|vil- de Hei, du|dun- kle Fjeld, vi|
 A, A, A, !>!F, | A, F, A, !>!D, | C,3!p! D, | C,3!f! ^E, | F,3!p! ^E, | F,3 z |] %19
w: vaa- ge trygt med|Blus og Sang, og|slaa, og|slaa vor|Leir vor|Leir.|
w: si- ge jer med|Blus og Sang, Far-|vel, Far-|vel, Far-|vel, Far-|vel.|
V:4
 F, | (F,/^E,/) F, (F,/E,/) F, | (F,A,,) B,,3/2 B,,/ | C, C, F, (G,/F,/) | F, F, F, !>!C, | %5
w: Det|vif- * ter koldt * og|skum- * rer, og|Aft- nens gyld- ne _|Blink for- gaa; alt|
w: Snart|syn- * ker alt * i|Taa- * ge, og|Mul- met hin- drer _|hvert et Trin; i|
 (F,/^E,/) F, (=F,/=E,/) F, | (E,D,) C,3/2 D,/ | E, ^E, F, (G,/A,/) | %8
w: Gra- * ne- kol- * len|slum- * rer i|luk- ket Telt af\_ *|
w: Bjerg- * ets Drøm- * me-|kro- * ge da|kog- les let en\_ *|
 C, C,!<(! !fermata!F,, A,!<)! | A,3/2 E,/ C, E, | C3 B, | E,3/2 E,/ E, E, | E, E, A,, !>!D, | %13
w: Taa- ger graa. Men|høit paa sæ- ter-|vang vi|hol- de Tørn mod|Nat og Veir, og|
w: Van- drer ind. I|Høst for sid- ste|gang du|vil- de Hei, du|dun- kle Fjeld, vi|
 A,, D, A,, !>!B,, | F, B,, F, !>!D, | C,3!p! D, | C,3!f! C, | F,3!p! C, | F,,3 z |] %19
w: vaa- ge trygt med|Blus og Sang, og|slaa, og|slaa vor|Leir vor|Leir.|
w: si- ge jer med|Blus og Sang, Far-|vel, Far-|vel, Far-|vel, Far-|vel.|

